icons/dojo.svg

<!--
  - The MIT License (MIT)
  -
  - Copyright (c) 2015-2024 Elior "Mallowigi" Boukhobza
  -
  - Permission is hereby granted, free of charge, to any person obtaining a copy
  - of this software and associated documentation files (the "Software"), to deal
  - in the Software without restriction, including without limitation the rights
  - to use, copy, modify, merge, publish, distribute, sublicense, and/or sell
  - copies of the Software, and to permit persons to whom the Software is
  - furnished to do so, subject to the following conditions:
  -
  - The above copyright notice and this permission notice shall be included in all
  - copies or substantial portions of the Software.
  -
  - THE SOFTWARE IS PROVIDED "AS IS", WITHOUT WARRANTY OF ANY KIND, EXPRESS OR
  - IMPLIED, INCLUDING BUT NOT LIMITED TO THE WARRANTIES OF MERCHANTABILITY,
  - FITNESS FOR A PARTICULAR PURPOSE AND NONINFRINGEMENT. IN NO EVENT SHALL THE
  - AUTHORS OR COPYRIGHT HOLDERS BE LIABLE FOR ANY CLAIM, DAMAGES OR OTHER
  - LIABILITY, WHETHER IN AN ACTION OF CONTRACT, TORT OR OTHERWISE, ARISING FROM,
  - OUT OF OR IN CONNECTION WITH THE SOFTWARE OR THE USE OR OTHER DEALINGS IN THE
  - SOFTWARE.
  -
  -->

<svg version="1.1" xmlns="http://www.w3.org/2000/svg" viewBox="0 0 512 512" width="16px" height="16px">
  <path fill="#f54a3c" data-iconColor="Dojo"
        d="M122.181221,314.4196167l6.8304977-4.6658325v16.2581482l24.264328-0.0003662V138.5868835l-23.7489624,0.6781158c0,0.4682007,0.0161591,134.8411713,0.0161591,134.8411713c-25.5107956,62.1605835-120.432045,38.8465881-107.9439545-33.6618652c9.1606178-35.7350922,50.4596901-57.3837891,91.282547-30.7073669c0.0968628-0.1937256,3.0352097-19.4060211,3.0352097-19.4060211c0.3874741-1.6144867-0.7588043-2.4701538-7.0391235-5.4246521C47.0796967,160.7456818-12.2044544,207.7067413,2.1771114,273.6217957C10.1767483,315.4428101,72.2561493,350.7850342,122.181221,314.4196167z M325.4439087,172.8461609h19.0185547V143.365799h-19.0185547V172.8461609z M304.536438,356.7674255c0,1.1462708,11.4143677,16.7421265,12.1731567,16.6452332c2.0988159-0.0968628,16.8389893-20.9236145,21.488678-30.2391357c6.6516724-13.319458,6.2803345-8.0885315,6.0866089-88.5217896l-0.2906189-72.7483673l-18.550354,0.5489349v69.1319122c0,75.9772797,0.0968933,74.2659454-5.7959595,85.9709015C315.0240784,347.091095,305.8650208,353.9187622,304.536438,356.7674255z M207.7242889,149.9367218c-1.5091553,0.366684-0.6699982,7.2167053-0.6699982,7.2167053l64.1916199,0.4843445c0,0,0.9525452-5.4085083,0.7587891-6.3610382c-0.2905884-1.6144867-2.1795349-1.7113495-31.6599121-1.9050903C223.0375824,149.1779022,208.3862305,149.4685059,207.7242889,149.9367218z M211.0378571,302.5928345c-37.5877228-21.541748-37.5877228-75.6885529-0.0000153-97.2303162s84.8274536,5.5316315,84.8274536,48.6151581S248.6255646,324.134613,211.0378571,302.5928345z M315.1632996,253.6099854c0-58.017395-63.6712646-94.4751434-114.3331909-65.4664459s-50.661911,101.9242096,0.0000153,130.9328766C251.4920502,348.0851135,315.1632996,311.6273804,315.1632996,253.6099854z M404.5610046,149.9367218c-1.5091858,0.366684-0.6700134,7.2167053-0.6700134,7.2167053l64.1916199,0.4843445c0,0,0.9525452-5.4085083,0.7587891-6.3610382c-0.2905884-1.6144867-2.1795349-1.7113495-31.6599121-1.9050903C419.8742981,149.1779022,405.2229309,149.4685059,404.5610046,149.9367218z M407.8745728,302.5928345c-37.587738-21.541748-37.587738-75.6885529-0.0000305-97.2303162s84.8274536,5.5316315,84.8274536,48.6151581S445.4622803,324.134613,407.8745728,302.5928345z M512,253.6099854c0-58.017395-63.6712646-94.4751434-114.3331909-65.4664459s-50.6619263,101.9242096,0.0000305,130.9328766C448.3287659,348.0851135,512,311.6273804,512,253.6099854z"/>
</svg>

<svg xmlns="http://www.w3.org/2000/svg" viewBox="0 0 512 512"><path fill="#f54a3c" d="m122.181 314.42 6.83-4.666v16.258h24.265V138.587l-23.749.678.016 134.841c-25.51 62.16-120.432 38.847-107.944-33.662 9.16-35.735 50.46-57.383 91.283-30.707.097-.194 3.035-19.406 3.035-19.406.388-1.615-.759-2.47-7.04-5.425-61.797-24.16-121.081 22.8-106.7 88.716 8 41.82 70.08 77.163 120.004 40.798m203.263-141.574h19.018v-29.48h-19.018zm-20.908 183.921c0 1.147 11.415 16.743 12.174 16.646 2.098-.097 16.839-20.924 21.488-30.24 6.652-13.319 6.28-8.088 6.087-88.521l-.29-72.749-18.551.55v69.131c0 75.977.097 74.266-5.796 85.971-4.624 9.536-13.783 16.364-15.112 19.212m-96.812-206.83c-1.509.366-.67 7.216-.67 7.216l64.192.485s.952-5.409.759-6.361c-.29-1.615-2.18-1.712-31.66-1.905-17.307-.194-31.959.097-32.62.565m3.314 152.656c-37.588-21.542-37.588-75.689 0-97.23s84.827 5.531 84.827 48.615-47.24 70.157-84.827 48.615m104.125-48.983c0-58.017-63.671-94.475-114.333-65.466s-50.662 101.924 0 130.932c50.662 29.01 114.333-7.449 114.333-65.466m89.398-103.673c-1.51.366-.67 7.216-.67 7.216l64.192.485s.952-5.409.758-6.361c-.29-1.615-2.18-1.712-31.66-1.905-17.307-.194-31.958.097-32.62.565m3.314 152.656c-37.588-21.542-37.588-75.689 0-97.23s84.827 5.531 84.827 48.615-47.24 70.157-84.827 48.615M512 253.61c0-58.017-63.671-94.475-114.333-65.466s-50.662 101.924 0 130.932C448.329 348.086 512 311.627 512 253.61" data-iconColor="Dojo"/></svg>
